X:1
T:Title
%%score { ( 1 3 ) | 2 }
L:1/8
Q:1/4=100
M:4/4
K:Ab
V:1 treble nm="Grand Piano"
V:3 treble 
V:2 bass 
V:1
 [CE]>[CE] [CA]>[DB] [Ec]>[Ec] [Ec]>[EA] | [FB]2 [FA]2 F3 A | G>G G>A B3 [EG] | %3
w: L.~E.~Jones * * * * * * *|||
 [EA]>[EA] [EA]>B c4 | [CE]>[CE] [CA]>[DB] [Ec]>[Ec] [Ec]>[EA] | [FB]2 [FA]2 F4 | E2 d2 c>A B>B | %7
w: ||||
 [CA]6 z2 | e2 e2 c>A B>B | z2 F2 z4 | e2 e2 c>A B>[=Dc] | B6 z2 | c>c c>d e2 c>c | %13
w: ||||||
 [Fd]>[Fc] [FB]>[FA] F4 | E2 d2 c>A B>B | [CA]6 z2 |] %16
w: |||
V:2
 [A,,A,]>[A,,A,] [A,,E,]>[A,,E,] [A,,A,]>[A,,A,] [A,,A,]>[C,A,] | [D,D]2 [D,D]2 [D,A,D]3 [D,F,D] | %2
 [E,D]>[E,D] [E,B,D]>[E,A,C] [E,G,D]3 [D,B,] | [C,A,]>[C,A,] [C,A,]>[E,G,E] [A,E]4 | %4
 [A,,A,]>[A,,A,] [A,,E,]>[A,,E,] [A,,A,]>[A,,A,] [A,,A,]>[C,A,] | [D,D]2 [D,D]2 [D,A,D]4 | %6
 [E,A,C]2 [E,B,E]2 [E,A,E]>[E,A,C] [E,G,D]>[E,G,D] | [A,,A,]6 z2 | %8
 [A,CA]2 [A,CA]2[K:bass] [A,E]>[A,C] [E,G,D]>[E,G,D] | [F,A,C]2 [D,A,D]>[D,A,] [A,,A,]4 | %10
 [A,CE]2 [A,CE]2 [A,E]>[A,C] [F,A,=D]>[B,,A,] | [E,G,E]2 [F,A,]>[F,A,] [G,B,]2 [E,B,E]>[E,B,E] | %12
 [A,E]>[A,E] [A,E]>[A,B,E] [A,CE]2 [A,_G]>[A,G] | [D,A,]>[D,A,] [D,A,]>[D,A,] [D,A,D]4 | %14
 [E,A,C]2 [E,B,E]2 [E,A,E]>[E,A,C] [E,G,D]>[E,G,D] | [A,,A,]6 z2 |] %16
V:3
 x8 | x8 | x8 | x8 | x8 | x8 | x8 | x8 | x8 | A2 z z/ D/ [CA]4 | x8 | z2 =D>D E2 d>d | x8 | x8 | %14
 x8 | x8 |] %16

